Newaita-dark/devices/48/computer-laptop.svg

<svg height="48pt" viewBox="0 0 48 48" width="48pt" xmlns="http://www.w3.org/2000/svg" xmlns:xlink="http://www.w3.org/1999/xlink"><linearGradient id="a" gradientUnits="userSpaceOnUse" x1="22.8225" x2="22.8225" y1="42.0509045" y2="44.03547050005"><stop offset="0" stop-opacity=".27451"/><stop offset="1" stop-opacity="0"/></linearGradient><linearGradient id="b"><stop offset="0" stop-opacity=".313725"/><stop offset=".222222" stop-opacity=".27451"/><stop offset="1" stop-opacity="0"/></linearGradient><radialGradient id="c" cx="450.908936" cy="189.579361" gradientTransform="matrix(.00000026 -.117199 -.210958 -.00000015 81.172821 95.392999)" gradientUnits="userSpaceOnUse" r="21.166656" xlink:href="#b"/><radialGradient id="d" cx="450.908936" cy="189.579361" gradientTransform="matrix(-.00000026 .117199 .210958 .00000015 -33.543272 -11.291218)" gradientUnits="userSpaceOnUse" r="21.166656" xlink:href="#b"/><radialGradient id="e" cx="450.908936" cy="189.579361" gradientTransform="matrix(-.00000026 -.117199 .210958 -.00000015 -33.543272 95.392999)" gradientUnits="userSpaceOnUse" r="21.166656" xlink:href="#b"/><radialGradient id="f" cx="450.908936" cy="189.579361" gradientTransform="matrix(.00000026 .117199 -.210958 .00000015 81.172818 -11.291219)" gradientUnits="userSpaceOnUse" r="21.166656" xlink:href="#b"/><linearGradient id="g"><stop offset="0" stop-color="#9e9e9e"/><stop offset="1" stop-color="#e0e0e0"/></linearGradient><linearGradient id="h" gradientTransform="matrix(.113024 0 0 .326118 -8.78102 50.462022)" gradientUnits="userSpaceOnUse" x1="306.916656" x2="305.954559" xlink:href="#g" y1="-25.791676" y2="-135.329163"/><linearGradient id="i" gradientTransform="matrix(.5 0 0 .571428 169.333206 -297.38092)" gradientUnits="userSpaceOnUse" x1="444.5" x2="444.5" y1="185.875" y2="148.833328"><stop offset="0" stop-color="#4db6ac"/><stop offset="1" stop-color="#009688"/></linearGradient><linearGradient id="j" gradientUnits="userSpaceOnUse" x1="880.00008250918" x2="880.00008250918" xlink:href="#g" y1="1695.118238" y2="1455.11821"/><linearGradient id="k" gradientUnits="userSpaceOnUse" x1="23.814785" x2="23.814785" xlink:href="#g" y1="42.0509015" y2="36.097205"/><linearGradient id="l" gradientUnits="userSpaceOnUse" x1="254" x2="254" y1="159.416672" y2="-126.333344"><stop offset="0" stop-color="#5c6bc0"/><stop offset="1" stop-color="#7986cb"/></linearGradient><path d="m5.953125 42.050781h35.722656v1.984375h-35.722656zm0 0" fill="url(#a)"/><path d="m41.675781 42.050781h3.96875v-1.984375h-3.96875zm0 0" fill="url(#c)"/><path d="m5.953125 42.050781h-3.96875v1.984375h3.96875zm0 0" fill="url(#d)"/><path d="m5.953125 42.050781h-3.96875v-1.984375h3.96875zm0 0" fill="url(#e)"/><path d="m41.675781 42.050781h3.96875v1.984375h-3.96875zm0 0" fill="url(#f)"/><path d="m5.953125 6.328125h35.722656c1.097657 0 1.984375.890625 1.984375 1.984375v27.785156c0 1.09375-.886718 1.984375-1.984375 1.984375h-35.722656c-1.09375 0-1.984375-.890625-1.984375-1.984375v-27.785156c0-1.09375.890625-1.984375 1.984375-1.984375zm0 0" fill="url(#h)"/><path d="m391.587605-212.334192c5.832777 0 10.582323 4.749547 10.582323 10.582323s-4.749546 10.582323-10.582323 10.582323c-5.832776 0-10.582323-4.749547-10.582323-10.582323s4.749547-10.582323 10.582323-10.582323zm0 0" fill="url(#i)" stroke="#212121" stroke-linecap="round" stroke-width="3" transform="matrix(.093759 0 0 -.093759 0 20.158175)"/><path d="m5.953125 6.328125c-1.097656 0-1.984375.886719-1.984375 1.984375v.496094c0-1.097656.886719-1.984375 1.984375-1.984375h35.722656c1.097657 0 1.984375.886719 1.984375 1.984375v-.496094c0-1.097656-.886718-1.984375-1.984375-1.984375zm0 0" fill="#fff" fill-opacity=".784314"/><path d="m5.953125 6.1875c-1.175781 0-2.125.949219-2.125 2.125v27.785156c0 1.175782.949219 2.125 2.125 2.125h35.722656c1.175781 0 2.125-.949218 2.125-2.125v-27.785156c0-1.175781-.949219-2.125-2.125-2.125zm0 .28125h35.722656c1.023438 0 1.84375.820312 1.84375 1.84375v27.785156c0 1.023438-.820312 1.84375-1.84375 1.84375h-35.722656c-1.023437 0-1.84375-.820312-1.84375-1.84375v-27.785156c0-1.023438.820313-1.84375 1.84375-1.84375zm0 0" fill="#212121"/><path d="m199.980913 1455.136708c-22.202605 0-39.996182 17.793578-39.996182 39.996183s17.793577 39.996183 39.996182 39.996183h39.996183c22.202605 0 39.996183-17.793578 39.996183-39.996183s-17.793578-39.996183-39.996183-39.996183zm159.984731 0c-22.202605 0-39.996183 17.793578-39.996183 39.996183s17.793578 39.996183 39.996183 39.996183h39.996183c22.202605 0 39.996182-17.793578 39.996182-39.996183s-17.793577-39.996183-39.996182-39.996183zm159.984731 0c-22.04514 0-39.996183 17.793578-39.996183 39.996183s17.951043 39.996183 39.996183 39.996183h39.996182c22.202606 0 39.996183-17.793578 39.996183-39.996183s-17.793577-39.996183-39.996183-39.996183zm159.98473 0c-22.04514 0-39.996182 17.793578-39.996182 39.996183s17.951042 39.996183 39.996182 39.996183h400.119292c22.04514 0 39.996183-17.793578 39.996183-39.996183s-17.951043-39.996183-39.996183-39.996183zm520.10784 0c-22.202605 0-39.996183 17.793578-39.996183 39.996183s17.793578 39.996183 39.996183 39.996183h39.996183c22.04514 0 39.996182-17.793578 39.996182-39.996183s-17.951042-39.996183-39.996182-39.996183zm159.984731 0c-22.202606 0-39.996183 17.793578-39.996183 39.996183s17.793577 39.996183 39.996183 39.996183h39.996182c22.202606 0 39.996183-17.793578 39.996183-39.996183s-17.793577-39.996183-39.996183-39.996183zm159.98473 0c-22.202605 0-39.996182 17.793578-39.996182 39.996183s17.793577 39.996183 39.996182 39.996183h39.996183c22.202605 0 39.996183-17.793578 39.996183-39.996183s-17.793578-39.996183-39.996183-39.996183zm159.984731 0c-22.202605 0-39.996183 17.793578-39.996183 39.996183s17.793578 39.996183 39.996183 39.996183h39.996183c22.202605 0 39.996182-17.793578 39.996182-39.996183s-17.793577-39.996183-39.996182-39.996183zm0 0" fill="url(#j)" stroke="#212121" stroke-linecap="round" stroke-linejoin="round" stroke-width="11.338583" transform="scale(.0248071)"/><path d="m3.96875 37.089844h39.691406c1.097656 0 1.984375.886718 1.984375 1.984375v.992187c0 1.097656-.886719 1.984375-1.984375 1.984375h-39.691406c-1.09375 0-1.984375-.886719-1.984375-1.984375v-.992187c0-1.097657.890625-1.984375 1.984375-1.984375zm0 0" fill="url(#k)"/><path d="m74.076259-126.3418h359.840637c5.832777 0 10.582323 4.749547 10.582323 10.582323v254.017409c0 5.832777-4.749546 10.582323-10.582323 10.582323h-359.840637c-5.832776 0-10.582322-4.749546-10.582322-10.582323v-254.017409c0-5.832776 4.749546-10.582323 10.582322-10.582323zm0 0" fill="url(#l)" stroke="#212121" stroke-linecap="round" stroke-linejoin="round" stroke-width="3" transform="matrix(.093759 0 0 .093759 0 20.158175)"/><path d="m3.96875 37.089844c-1.097656 0-1.984375.886718-1.984375 1.984375v.496093c0-1.097656.886719-1.984374 1.984375-1.984374h39.691406c1.101563 0 1.984375.886718 1.984375 1.984374v-.496093c0-1.097657-.882812-1.984375-1.984375-1.984375zm0 0" fill="#fff" fill-opacity=".392157"/><path d="m3.96875 42.050781c-1.097656 0-1.984375-.886719-1.984375-1.984375v-.496094c0 1.097657.886719 1.984376 1.984375 1.984376h39.691406c1.101563 0 1.984375-.886719 1.984375-1.984376v.496094c0 1.097656-.882812 1.984375-1.984375 1.984375zm0 0" fill-opacity=".235294"/><path d="m3.96875 36.949219c-1.175781 0-2.125.949219-2.125 2.125v.992187c0 1.175782.949219 2.125 2.125 2.125h39.691406c1.175782 0 2.125-.949218 2.125-2.125v-.992187c0-1.175781-.949218-2.125-2.125-2.125zm0 .28125h39.691406c1.023438 0 1.84375.820312 1.84375 1.84375v.992187c0 1.023438-.820312 1.84375-1.84375 1.84375h-39.691406c-1.023438 0-1.84375-.820312-1.84375-1.84375v-.992187c0-1.023438.820312-1.84375 1.84375-1.84375zm0 0" fill="#212121"/></svg>

<?xml version="1.0" encoding="UTF-8"?>
<svg xmlns="http://www.w3.org/2000/svg" xmlns:xlink="http://www.w3.org/1999/xlink" width="48pt" height="48pt" viewBox="0 0 48 48" version="1.1">
<defs>
<linearGradient id="linear0" gradientUnits="userSpaceOnUse" x1="254" y1="233.5" x2="254" y2="254.666672" gradientTransform="matrix(0.093759,0,0,0.093759,-0.992286,20.158178)">
<stop offset="0" style="stop-color:rgb(0%,0%,0%);stop-opacity:0.27451;"/>
<stop offset="1" style="stop-color:rgb(0%,0%,0%);stop-opacity:0;"/>
</linearGradient>
<radialGradient id="radial0" gradientUnits="userSpaceOnUse" cx="450.908936" cy="189.579361" fx="450.908936" fy="189.579361" r="21.166656" gradientTransform="matrix(0.000000261256,-0.117199,-0.210958,-0.000000152308,81.172821,95.392999)">
<stop offset="0" style="stop-color:rgb(0%,0%,0%);stop-opacity:0.313725;"/>
<stop offset="0.222222" style="stop-color:rgb(0%,0%,0%);stop-opacity:0.27451;"/>
<stop offset="1" style="stop-color:rgb(0%,0%,0%);stop-opacity:0;"/>
</radialGradient>
<radialGradient id="radial1" gradientUnits="userSpaceOnUse" cx="450.908936" cy="189.579361" fx="450.908936" fy="189.579361" r="21.166656" gradientTransform="matrix(-0.000000261256,0.117199,0.210958,0.000000152308,-33.543272,-11.291218)">
<stop offset="0" style="stop-color:rgb(0%,0%,0%);stop-opacity:0.313725;"/>
<stop offset="0.222222" style="stop-color:rgb(0%,0%,0%);stop-opacity:0.27451;"/>
<stop offset="1" style="stop-color:rgb(0%,0%,0%);stop-opacity:0;"/>
</radialGradient>
<radialGradient id="radial2" gradientUnits="userSpaceOnUse" cx="450.908936" cy="189.579361" fx="450.908936" fy="189.579361" r="21.166656" gradientTransform="matrix(-0.000000261256,-0.117199,0.210958,-0.000000152308,-33.543272,95.392999)">
<stop offset="0" style="stop-color:rgb(0%,0%,0%);stop-opacity:0.313725;"/>
<stop offset="0.222222" style="stop-color:rgb(0%,0%,0%);stop-opacity:0.27451;"/>
<stop offset="1" style="stop-color:rgb(0%,0%,0%);stop-opacity:0;"/>
</radialGradient>
<radialGradient id="radial3" gradientUnits="userSpaceOnUse" cx="450.908936" cy="189.579361" fx="450.908936" fy="189.579361" r="21.166656" gradientTransform="matrix(0.000000261256,0.117199,-0.210958,0.000000152308,81.172818,-11.291219)">
<stop offset="0" style="stop-color:rgb(0%,0%,0%);stop-opacity:0.313725;"/>
<stop offset="0.222222" style="stop-color:rgb(0%,0%,0%);stop-opacity:0.27451;"/>
<stop offset="1" style="stop-color:rgb(0%,0%,0%);stop-opacity:0;"/>
</radialGradient>
<linearGradient id="linear1" gradientUnits="userSpaceOnUse" x1="306.916656" y1="-25.791676" x2="305.954559" y2="-135.329163" gradientTransform="matrix(0.113024,0,0,0.326118,-8.78102,50.462022)">
<stop offset="0" style="stop-color:rgb(61.960784%,61.960784%,61.960784%);stop-opacity:1;"/>
<stop offset="1" style="stop-color:rgb(87.843137%,87.843137%,87.843137%);stop-opacity:1;"/>
</linearGradient>
<linearGradient id="linear2" gradientUnits="userSpaceOnUse" x1="444.5" y1="185.875" x2="444.5" y2="148.833328" gradientTransform="matrix(0.5,0,0,0.571428,169.333206,-297.38092)">
<stop offset="0" style="stop-color:rgb(30.196078%,71.372549%,67.45098%);stop-opacity:1;"/>
<stop offset="1" style="stop-color:rgb(0%,58.823529%,53.333333%);stop-opacity:1;"/>
</linearGradient>
<linearGradient id="linear3" gradientUnits="userSpaceOnUse" x1="232.833328" y1="233.5" x2="232.833328" y2="170" gradientTransform="matrix(3.779528,0,0,3.779528,0,812.59845)">
<stop offset="0" style="stop-color:rgb(61.960784%,61.960784%,61.960784%);stop-opacity:1;"/>
<stop offset="1" style="stop-color:rgb(87.843137%,87.843137%,87.843137%);stop-opacity:1;"/>
</linearGradient>
<linearGradient id="linear4" gradientUnits="userSpaceOnUse" x1="254" y1="233.5" x2="254" y2="170" gradientTransform="matrix(0.093759,0,0,0.093759,-0.000000641236,20.158175)">
<stop offset="0" style="stop-color:rgb(61.960784%,61.960784%,61.960784%);stop-opacity:1;"/>
<stop offset="1" style="stop-color:rgb(87.843137%,87.843137%,87.843137%);stop-opacity:1;"/>
</linearGradient>
<linearGradient id="linear5" gradientUnits="userSpaceOnUse" x1="254" y1="159.416672" x2="254" y2="-126.333344" gradientTransform="matrix(1,0,0,1,0,0)">
<stop offset="0" style="stop-color:rgb(36.078431%,41.960784%,75.294118%);stop-opacity:1;"/>
<stop offset="1" style="stop-color:rgb(47.45098%,52.54902%,79.607843%);stop-opacity:1;"/>
</linearGradient>
</defs>
<g id="surface1">
<path style=" stroke:none;fill-rule:nonzero;fill:url(#linear0);" d="M 5.953125 42.050781 L 41.675781 42.050781 L 41.675781 44.035156 L 5.953125 44.035156 Z M 5.953125 42.050781 "/>
<path style=" stroke:none;fill-rule:nonzero;fill:url(#radial0);" d="M 41.675781 42.050781 L 45.644531 42.050781 L 45.644531 40.066406 L 41.675781 40.066406 Z M 41.675781 42.050781 "/>
<path style=" stroke:none;fill-rule:nonzero;fill:url(#radial1);" d="M 5.953125 42.050781 L 1.984375 42.050781 L 1.984375 44.035156 L 5.953125 44.035156 Z M 5.953125 42.050781 "/>
<path style=" stroke:none;fill-rule:nonzero;fill:url(#radial2);" d="M 5.953125 42.050781 L 1.984375 42.050781 L 1.984375 40.066406 L 5.953125 40.066406 Z M 5.953125 42.050781 "/>
<path style=" stroke:none;fill-rule:nonzero;fill:url(#radial3);" d="M 41.675781 42.050781 L 45.644531 42.050781 L 45.644531 44.035156 L 41.675781 44.035156 Z M 41.675781 42.050781 "/>
<path style=" stroke:none;fill-rule:nonzero;fill:url(#linear1);" d="M 5.953125 6.328125 L 41.675781 6.328125 C 42.773438 6.328125 43.660156 7.21875 43.660156 8.3125 L 43.660156 36.097656 C 43.660156 37.191406 42.773438 38.082031 41.675781 38.082031 L 5.953125 38.082031 C 4.859375 38.082031 3.96875 37.191406 3.96875 36.097656 L 3.96875 8.3125 C 3.96875 7.21875 4.859375 6.328125 5.953125 6.328125 Z M 5.953125 6.328125 "/>
<path style="fill-rule:nonzero;fill:url(#linear2);stroke-width:3;stroke-linecap:round;stroke-linejoin:miter;stroke:rgb(12.941177%,12.941177%,12.941177%);stroke-opacity:1;stroke-miterlimit:4;" d="M 391.587605 -212.334192 C 397.420382 -212.334192 402.169928 -207.584645 402.169928 -201.751869 C 402.169928 -195.919093 397.420382 -191.169546 391.587605 -191.169546 C 385.754829 -191.169546 381.005282 -195.919093 381.005282 -201.751869 C 381.005282 -207.584645 385.754829 -212.334192 391.587605 -212.334192 Z M 391.587605 -212.334192 " transform="matrix(0.093759,0,0,-0.093759,0,20.158175)"/>
<path style=" stroke:none;fill-rule:nonzero;fill:rgb(100%,100%,100%);fill-opacity:0.784314;" d="M 5.953125 6.328125 C 4.855469 6.328125 3.96875 7.214844 3.96875 8.3125 L 3.96875 8.808594 C 3.96875 7.710938 4.855469 6.824219 5.953125 6.824219 L 41.675781 6.824219 C 42.773438 6.824219 43.660156 7.710938 43.660156 8.808594 L 43.660156 8.3125 C 43.660156 7.214844 42.773438 6.328125 41.675781 6.328125 Z M 5.953125 6.328125 "/>
<path style=" stroke:none;fill-rule:nonzero;fill:rgb(12.941177%,12.941177%,12.941177%);fill-opacity:1;" d="M 5.953125 6.1875 C 4.777344 6.1875 3.828125 7.136719 3.828125 8.3125 L 3.828125 36.097656 C 3.828125 37.273438 4.777344 38.222656 5.953125 38.222656 L 41.675781 38.222656 C 42.851562 38.222656 43.800781 37.273438 43.800781 36.097656 L 43.800781 8.3125 C 43.800781 7.136719 42.851562 6.1875 41.675781 6.1875 Z M 5.953125 6.46875 L 41.675781 6.46875 C 42.699219 6.46875 43.519531 7.289062 43.519531 8.3125 L 43.519531 36.097656 C 43.519531 37.121094 42.699219 37.941406 41.675781 37.941406 L 5.953125 37.941406 C 4.929688 37.941406 4.109375 37.121094 4.109375 36.097656 L 4.109375 8.3125 C 4.109375 7.289062 4.929688 6.46875 5.953125 6.46875 Z M 5.953125 6.46875 "/>
<path style="fill-rule:nonzero;fill:url(#linear3);stroke-width:11.338583;stroke-linecap:round;stroke-linejoin:round;stroke:rgb(12.941177%,12.941177%,12.941177%);stroke-opacity:1;stroke-miterlimit:4;" d="M 199.980913 1455.136708 C 177.778308 1455.136708 159.984731 1472.930286 159.984731 1495.132891 C 159.984731 1517.335496 177.778308 1535.129074 199.980913 1535.129074 L 239.977096 1535.129074 C 262.179701 1535.129074 279.973279 1517.335496 279.973279 1495.132891 C 279.973279 1472.930286 262.179701 1455.136708 239.977096 1455.136708 Z M 359.965644 1455.136708 C 337.763039 1455.136708 319.969461 1472.930286 319.969461 1495.132891 C 319.969461 1517.335496 337.763039 1535.129074 359.965644 1535.129074 L 399.961827 1535.129074 C 422.164432 1535.129074 439.958009 1517.335496 439.958009 1495.132891 C 439.958009 1472.930286 422.164432 1455.136708 399.961827 1455.136708 Z M 519.950375 1455.136708 C 497.905235 1455.136708 479.954192 1472.930286 479.954192 1495.132891 C 479.954192 1517.335496 497.905235 1535.129074 519.950375 1535.129074 L 559.946557 1535.129074 C 582.149163 1535.129074 599.94274 1517.335496 599.94274 1495.132891 C 599.94274 1472.930286 582.149163 1455.136708 559.946557 1455.136708 Z M 679.935105 1455.136708 C 657.889965 1455.136708 639.938923 1472.930286 639.938923 1495.132891 C 639.938923 1517.335496 657.889965 1535.129074 679.935105 1535.129074 L 1080.054397 1535.129074 C 1102.099537 1535.129074 1120.05058 1517.335496 1120.05058 1495.132891 C 1120.05058 1472.930286 1102.099537 1455.136708 1080.054397 1455.136708 Z M 1200.042945 1455.136708 C 1177.84034 1455.136708 1160.046762 1472.930286 1160.046762 1495.132891 C 1160.046762 1517.335496 1177.84034 1535.129074 1200.042945 1535.129074 L 1240.039128 1535.129074 C 1262.084268 1535.129074 1280.03531 1517.335496 1280.03531 1495.132891 C 1280.03531 1472.930286 1262.084268 1455.136708 1240.039128 1455.136708 Z M 1360.027676 1455.136708 C 1337.82507 1455.136708 1320.031493 1472.930286 1320.031493 1495.132891 C 1320.031493 1517.335496 1337.82507 1535.129074 1360.027676 1535.129074 L 1400.023858 1535.129074 C 1422.226464 1535.129074 1440.020041 1517.335496 1440.020041 1495.132891 C 1440.020041 1472.930286 1422.226464 1455.136708 1400.023858 1455.136708 Z M 1520.012406 1455.136708 C 1497.809801 1455.136708 1480.016224 1472.930286 1480.016224 1495.132891 C 1480.016224 1517.335496 1497.809801 1535.129074 1520.012406 1535.129074 L 1560.008589 1535.129074 C 1582.211194 1535.129074 1600.004772 1517.335496 1600.004772 1495.132891 C 1600.004772 1472.930286 1582.211194 1455.136708 1560.008589 1455.136708 Z M 1679.997137 1455.136708 C 1657.794532 1455.136708 1640.000954 1472.930286 1640.000954 1495.132891 C 1640.000954 1517.335496 1657.794532 1535.129074 1679.997137 1535.129074 L 1719.99332 1535.129074 C 1742.195925 1535.129074 1759.989502 1517.335496 1759.989502 1495.132891 C 1759.989502 1472.930286 1742.195925 1455.136708 1719.99332 1455.136708 Z M 1679.997137 1455.136708 " transform="matrix(0.0248071,0,0,0.0248071,0,0)"/>
<path style=" stroke:none;fill-rule:nonzero;fill:url(#linear4);" d="M 3.96875 37.089844 L 43.660156 37.089844 C 44.757812 37.089844 45.644531 37.976562 45.644531 39.074219 L 45.644531 40.066406 C 45.644531 41.164062 44.757812 42.050781 43.660156 42.050781 L 3.96875 42.050781 C 2.875 42.050781 1.984375 41.164062 1.984375 40.066406 L 1.984375 39.074219 C 1.984375 37.976562 2.875 37.089844 3.96875 37.089844 Z M 3.96875 37.089844 "/>
<path style="fill-rule:nonzero;fill:url(#linear5);stroke-width:3;stroke-linecap:round;stroke-linejoin:round;stroke:rgb(12.941177%,12.941177%,12.941177%);stroke-opacity:1;stroke-miterlimit:4;" d="M 74.076259 -126.3418 L 433.916896 -126.3418 C 439.749673 -126.3418 444.499219 -121.592253 444.499219 -115.759477 L 444.499219 138.257932 C 444.499219 144.090709 439.749673 148.840255 433.916896 148.840255 L 74.076259 148.840255 C 68.243483 148.840255 63.493937 144.090709 63.493937 138.257932 L 63.493937 -115.759477 C 63.493937 -121.592253 68.243483 -126.3418 74.076259 -126.3418 Z M 74.076259 -126.3418 " transform="matrix(0.093759,0,0,0.093759,0,20.158175)"/>
<path style=" stroke:none;fill-rule:nonzero;fill:rgb(100%,100%,100%);fill-opacity:0.392157;" d="M 3.96875 37.089844 C 2.871094 37.089844 1.984375 37.976562 1.984375 39.074219 L 1.984375 39.570312 C 1.984375 38.472656 2.871094 37.585938 3.96875 37.585938 L 43.660156 37.585938 C 44.761719 37.585938 45.644531 38.472656 45.644531 39.570312 L 45.644531 39.074219 C 45.644531 37.976562 44.761719 37.089844 43.660156 37.089844 Z M 3.96875 37.089844 "/>
<path style=" stroke:none;fill-rule:nonzero;fill:rgb(0%,0%,0%);fill-opacity:0.235294;" d="M 3.96875 42.050781 C 2.871094 42.050781 1.984375 41.164062 1.984375 40.066406 L 1.984375 39.570312 C 1.984375 40.667969 2.871094 41.554688 3.96875 41.554688 L 43.660156 41.554688 C 44.761719 41.554688 45.644531 40.667969 45.644531 39.570312 L 45.644531 40.066406 C 45.644531 41.164062 44.761719 42.050781 43.660156 42.050781 Z M 3.96875 42.050781 "/>
<path style=" stroke:none;fill-rule:nonzero;fill:rgb(12.941177%,12.941177%,12.941177%);fill-opacity:1;" d="M 3.96875 36.949219 C 2.792969 36.949219 1.84375 37.898438 1.84375 39.074219 L 1.84375 40.066406 C 1.84375 41.242188 2.792969 42.191406 3.96875 42.191406 L 43.660156 42.191406 C 44.835938 42.191406 45.785156 41.242188 45.785156 40.066406 L 45.785156 39.074219 C 45.785156 37.898438 44.835938 36.949219 43.660156 36.949219 Z M 3.96875 37.230469 L 43.660156 37.230469 C 44.683594 37.230469 45.503906 38.050781 45.503906 39.074219 L 45.503906 40.066406 C 45.503906 41.089844 44.683594 41.910156 43.660156 41.910156 L 3.96875 41.910156 C 2.945312 41.910156 2.125 41.089844 2.125 40.066406 L 2.125 39.074219 C 2.125 38.050781 2.945312 37.230469 3.96875 37.230469 Z M 3.96875 37.230469 "/>
</g>
</svg>
